src/pos-icons/eject-outline.svg

<svg height="24" viewBox="0 0 24 24" width="24" xmlns="http://www.w3.org/2000/svg"><path d="m5 17h14v2h-14zm7-12-6.67 10h13.34zm0 3.6 2.93 4.4h-5.86z"/></svg>

<?xml version="1.0" encoding="UTF-8"?><!DOCTYPE svg PUBLIC "-//W3C//DTD SVG 1.1//EN" "http://www.w3.org/Graphics/SVG/1.1/DTD/svg11.dtd"><svg xmlns="http://www.w3.org/2000/svg" xmlns:xlink="http://www.w3.org/1999/xlink" version="1.1" id="mdi-eject-outline" width="24" height="24" viewBox="0 0 24 24"><path d="M5,17H19V19H5V17M12,5L5.33,15H18.67L12,5M12,8.6L14.93,13H9.07L12,8.6Z" /></svg>
